sharp/svg/spa.svg

<svg xmlns="http://www.w3.org/2000/svg" width="24" height="24"><path fill="none" d="M0 0h24v24H0V0z"/><g fill="currentColor"><path d="M8.55 12zm10.43-1.61zM15.49 9.63c-.18-2.79-1.31-5.51-3.43-7.63a12.188 12.188 0 0 0-3.55 7.63c1.28.68 2.46 1.56 3.49 2.63 1.03-1.06 2.21-1.94 3.49-2.63zm-6.5 2.65c-.14-.1-.3-.19-.45-.29.15.11.31.19.45.29zm6.42-.25c-.13.09-.27.16-.4.26.13-.1.27-.17.4-.26zM12 15.45C9.85 12.17 6.18 10 2 10c0 5.32 3.36 9.82 8.03 11.49.63.23 1.29.4 1.97.51.68-.12 1.33-.29 1.97-.51C18.64 19.82 22 15.32 22 10c-4.18 0-7.85 2.17-10 5.45z"/></g></svg>

<?xml version="1.0" encoding="utf-8"?>
<!-- Generator: Adobe Illustrator 19.1.0, SVG Export Plug-In . SVG Version: 6.00 Build 0)  -->
<svg version="1.1" xmlns="http://www.w3.org/2000/svg" xmlns:xlink="http://www.w3.org/1999/xlink" x="0px" y="0px" width="24px"
	 height="24px" viewBox="0 0 24 24" enable-background="new 0 0 24 24" xml:space="preserve">
<g id="Bounding_Boxes">
	<path fill="none" d="M0,0h24v24H0V0z"/>
</g>
<g id="Sharp" fill="currentColor">
	<path d="M8.55,12c-1.07-0.71-2.25-1.27-3.53-1.61C6.3,10.73,7.48,11.29,8.55,12z M18.98,10.39c-1.29,0.34-2.49,0.91-3.57,1.64
		C16.49,11.3,17.69,10.73,18.98,10.39z"/>
	<path d="M15.49,9.63C15.31,6.84,14.18,4.12,12.06,2C9.92,4.14,8.74,6.86,8.51,9.63c1.28,0.68,2.46,1.56,3.49,2.63
		C13.03,11.2,14.21,10.32,15.49,9.63z M8.99,12.28c-0.14-0.1-0.3-0.19-0.45-0.29C8.69,12.1,8.85,12.18,8.99,12.28z M15.41,12.03
		c-0.13,0.09-0.27,0.16-0.4,0.26C15.14,12.19,15.28,12.12,15.41,12.03z M12,15.45C9.85,12.17,6.18,10,2,10
		c0,5.32,3.36,9.82,8.03,11.49c0.63,0.23,1.29,0.4,1.97,0.51c0.68-0.12,1.33-0.29,1.97-0.51C18.64,19.82,22,15.32,22,10
		C17.82,10,14.15,12.17,12,15.45z"/>
</g>
</svg>
